X:1
T:O Grosser Gott, LMD
T:O Grosser Gott, LMD
T:Gesang- und Notenbuch (Stuttgart, Germany 1744)
T:Public Domain Courtesy of the Cyber Hymnal™
C:Gesang- und Notenbuch (Stuttgart, Germany 1744)
Z:Public Domain
Z:Courtesy of the Cyber Hymnal™
%%score ( 1 2 ) ( 3 4 )
L:1/8
Q:1/4=110
M:4/4
K:C
V:1 treble 
V:2 treble 
V:3 bass 
V:4 bass 
V:1
 [CG]2 | [CE]2 [CF]2 [B,G]2 [CG]2 | [CA]2 [FB]2 [Ec]2 [EB]2 | [Ec]2 [GB]2 [EA]2 [EG]2 | %4
 [CA]2 A2 [B,G]2 [CG]2 | [CE]2 [CF]2 [B,G]2 [CG]2 | [CA]2 [FB]2 [Ec]2 [EB]2 | %7
 [Ec]2 [GB]2 [EA]2 [EG]2 | [CA]2 A2 [B,G]2 [CG]2 | [^CA]2 [EG]2 [DF]2 [DA]2 | %10
 [Dd]2 [Dc]2 [DB]2 [Gd]2 | [Ge]2 [^Fd]2 [Ec]2 G2 | [GA]2 [^FA]2 [DG]2 [EG]2 | %13
 [Ec]2 [EB]2 [CA]2 [^CA]2 | [Dd]2 [Dc]2 [DB]2 [CG]2 | [CA]2 [FB]2 [Gc]2 [Ge]2 | %16
 [Ad]2 d2 !fermata![Ec]2 |] %17
V:2
 x2 | x8 | x8 | x8 | x2 (DC) x4 | x8 | x8 | x8 | x2 (DC) x4 | x8 | x8 | x8 | x8 | x8 | x8 | x8 | %16
 x2 (GF) x2 |] %17
V:3
 [C,E,]2 | [C,G,]2 [A,,F,]2 [G,,D,]2 [C,E,]2 | F,2 [D,G,]2 [C,G,]2 [E,G,]2 | %3
 [A,,A,]2 [B,,D]2 [C,C]2 [E,B,]2 | (A,G,) [D,^F,]2 [G,,D,]2 [C,E,]2 | %5
 [C,G,]2 [A,,F,]2 [G,,D,]2 [C,E,]2 | F,2 [D,G,]2 [C,G,]2 [E,G,]2 | %7
 [A,,A,]2 [B,,D]2 [C,C]2 [E,B,]2 | (A,G,) [D,^F,]2 [G,,D,]2 [C,E,]2 | %9
 [A,,E,]2 [^C,A,]2 [D,A,]2 [F,A,]2 | [^F,A,]2 [D,F,]2 G,2 [B,,D]2 | %11
 [C,C]2 [D,A,]2 [A,,A,]2 [B,,D]2 | [C,E]2 (DC) [G,B,]2 [C,C]2 | [C,G,]2 [E,G,]2 [F,A,]2 [E,G,]2 | %14
 [D,^F,]2 [F,A,]2 G,2 [E,G,]2 | F,2 [D,G,]2 [E,G,]2 [C,C]2 | [F,C]2 [G,B,]2 !fermata![C,G,]2 |] %17
V:4
 x2 | x8 | F,2 x6 | x8 | A,,2 x6 | x8 | F,2 x6 | x8 | A,,2 x6 | x8 | x4 G,2 x2 | x8 | x2 D,2 x4 | %13
 x8 | x4 G,2 x2 | F,2 x6 | x6 |] %17

